icons/jscpd.svg

<!--
  - The MIT License (MIT)
  -
  - Copyright (c) 2015-2024 Elior "Mallowigi" Boukhobza
  -
  - Permission is hereby granted, free of charge, to any person obtaining a copy
  - of this software and associated documentation files (the "Software"), to deal
  - in the Software without restriction, including without limitation the rights
  - to use, copy, modify, merge, publish, distribute, sublicense, and/or sell
  - copies of the Software, and to permit persons to whom the Software is
  - furnished to do so, subject to the following conditions:
  -
  - The above copyright notice and this permission notice shall be included in all
  - copies or substantial portions of the Software.
  -
  - THE SOFTWARE IS PROVIDED "AS IS", WITHOUT WARRANTY OF ANY KIND, EXPRESS OR
  - IMPLIED, INCLUDING BUT NOT LIMITED TO THE WARRANTIES OF MERCHANTABILITY,
  - FITNESS FOR A PARTICULAR PURPOSE AND NONINFRINGEMENT. IN NO EVENT SHALL THE
  - AUTHORS OR COPYRIGHT HOLDERS BE LIABLE FOR ANY CLAIM, DAMAGES OR OTHER
  - LIABILITY, WHETHER IN AN ACTION OF CONTRACT, TORT OR OTHERWISE, ARISING FROM,
  - OUT OF OR IN CONNECTION WITH THE SOFTWARE OR THE USE OR OTHER DEALINGS IN THE
  - SOFTWARE.
  -
  -->

<svg  version="1.1" xmlns="http://www.w3.org/2000/svg" viewBox="0 0 512 512" width="16px" height="16px">
  <path fill="#b200b2" data-iconColor="jscpd"
        d="M68.228653,200.9017487h190.1714325v19.5047607H68.228653V200.9017487z M126.7429352,249.6636658h287.6952515v19.5047607H126.7429352V249.6636658z M141.3715057,308.1779785h224.3047638v19.5047607H141.3715057V308.1779785z M87.7334137,366.6922913h224.3047638v19.5047607H87.7334137V366.6922913z M77.9810333,425.206604h312.0761719v19.5047607H77.9810333V425.206604z M125.1729202,122.8825378L183.3279724,20.847084L162.1458282,8.7744608l-53.8357086,94.4574738L49.444046,9.8726759L28.8202381,22.8765488l63.0571442,100.0059891H0v380.3429871h512V122.8825378H125.1729202z M482.7428589,473.9683838H29.257143V152.1396942h453.4857178V473.9683838z"/>
</svg>

<svg xmlns="http://www.w3.org/2000/svg" viewBox="0 0 512 512"><path fill="#b200b2" d="M68.229 200.902H258.4v19.505H68.23zm58.514 48.762h287.695v19.504H126.743zm14.629 58.514h224.304v19.505H141.372zm-53.639 58.514h224.305v19.505H87.733zm-9.752 58.515h312.076v19.504H77.981zm47.192-302.324 58.155-102.036-21.182-12.073-53.836 94.458-58.866-93.36L28.82 22.878l63.057 100.006H0v380.343h512V122.883zm357.57 351.085H29.257V152.14h453.486z" data-iconColor="jscpd"/></svg>
